X:1
T:Title
%%score ( 1 2 ) { 3 | 4 }
L:1/8
Q:1/4=100
M:6/8
K:F
V:1 treble nm="Grand Piano, Soprano"
V:2 treble 
V:3 treble nm="Choir Pad, Ashbury Heights, 77.77 D"
V:4 bass 
V:1
 [FA]2 [GB] [Ac]2 [Fc] | [Fd]2 [Fd] [Fc]3 | [CF]2 [CG] [FA]2 F | [Fc]2 [FA] [EG]3 | %4
w: By~H.~A.~Davis,~1904 * * *||||
 [FA]2 [GB] [Ac]2 [Fc] | [Fd]2 [Fd] [Fc]3 | F2 [EG] [FA]2 [GB] | [FA]2 [EG] F3 | %8
w: ||||
 [Fd]2 [Fd] [Fc]2 [FA] | GF[B,D] [DF]3 | [CF]2 [FA] [Fc]2 [FA] | [CG]2 [DF] [EG]3 | %12
w: ||||
 [FA]2 [GB] [Ac]2 [Fc] | [Fd]2 [Fd] [Fc]3 | F2 [EG] [FA]2 [GB] | [FA]2 [EG] F3- | F6 |] %17
w: |||||
V:2
 x6 | x6 | x6 | x6 | x6 | x6 | x6 | x6 | x6 | .D3 z3 | x6 | x6 | x6 | x6 | x6 | x6 | x6 |] %17
V:3
 C2 C C2 A, | B,2[K:bass] B, A,3 | A,2 B, C2 A, | C2 C C3 | C2 C C2[K:bass] A, | B,2 B, A,3 | %6
 C2[K:treble] C C2 D | C2 B,[K:bass] A,3 | B,2 B, A,2 C | B,2 F, B,3 | A,2[K:treble] C A,2 C | %11
 C2 =B, C3 | C2 C C2[K:bass] A, | B,2 B, A,3 | C2[K:treble] C C2 D | C2 B, A,3- | A,6 |] %17
V:4
 F,2 F, F,2 F, | B,,2 B,, F,3 | F,2 F, F,2 F, | A,2 F, C,3 | F,2 F, F,2 F, | B,,2 B,, F,3 | %6
 A,2 G, F,2 B,, | C,2 C, F,3 | z3 F,2 F, | B,,2 B,, B,,3 | F,2 F, F,2 F, | E,2 D, C,3 | %12
 F,2 F, F,2 F, | B,,2 B,, F,3 | A,2 G, F,2 B,, | C,2 C, F,3- | F,6 |] %17

